src/assets/logo.svg

<svg width="40" height="19" viewBox="0 0 40 19" fill="none" xmlns="http://www.w3.org/2000/svg">
<path d="M27.1602 18.5065L27.3639 17.7722C27.6063 16.8986 27.5161 16.0911 27.1091 15.4978C26.7351 14.9513 26.1115 14.6296 25.354 14.5921L11.0083 14.4026C10.9638 14.4016 10.9201 14.3897 10.8808 14.3679C10.8415 14.3461 10.8077 14.315 10.782 14.2771C10.7571 14.2377 10.7414 14.1928 10.7361 14.146C10.7307 14.0991 10.7359 14.0516 10.7513 14.0073C10.776 13.9339 10.8207 13.8697 10.8799 13.8226C10.9391 13.7754 11.0102 13.7473 11.0846 13.7418L25.5635 13.5502C27.2808 13.4679 29.1403 12.0138 29.7914 10.2407L30.6173 7.98954C30.6394 7.92845 30.6504 7.86359 30.6497 7.7983C30.6498 7.76249 30.6463 7.72677 30.6393 7.69171C29.7015 3.28999 25.9385 0 21.4388 0C17.2928 0 13.7716 2.79214 12.5109 6.67308C11.6575 6.00481 10.5937 5.6976 9.5325 5.81297C7.54337 6.01906 5.94411 7.69002 5.74724 9.76575C5.69654 10.2841 5.73353 10.8076 5.8565 11.3126C2.60594 11.4114 0 14.1891 0 17.6035C0.000293535 17.9083 0.0219028 18.2127 0.0646556 18.5142C0.0739142 18.5839 0.106963 18.6478 0.157736 18.6942C0.208509 18.7405 0.273599 18.7662 0.341058 18.7665L26.8259 18.7699C26.8284 18.77 26.8309 18.77 26.8334 18.7699C26.9077 18.7681 26.9795 18.7416 27.0383 18.6942C27.0971 18.6468 27.1398 18.581 27.1602 18.5065Z" fill="#F6821F"/>
<path d="M31.9399 8.15283C31.8067 8.15283 31.6742 8.15632 31.5426 8.16329C31.5213 8.16488 31.5004 8.16965 31.4805 8.17745C31.4459 8.18979 31.4147 8.21068 31.3895 8.23835C31.3643 8.26601 31.346 8.29963 31.336 8.33632L30.7719 10.3692C30.5294 11.2428 30.6196 12.0496 31.0263 12.6429C31.4006 13.19 32.0242 13.5111 32.7817 13.5486L35.8396 13.7401C35.8826 13.7416 35.9248 13.7536 35.9626 13.775C36.0005 13.7964 36.0331 13.8268 36.0578 13.8636C36.0832 13.9031 36.0993 13.9482 36.1049 13.9953C36.1105 14.0425 36.1055 14.0904 36.0901 14.1351C36.0654 14.2083 36.0208 14.2724 35.9617 14.3196C35.9026 14.3667 35.8316 14.3949 35.7575 14.4006L32.5796 14.5922C30.8546 14.6751 28.9951 16.1285 28.3447 17.9017L28.1152 18.5277C28.1056 18.5539 28.102 18.582 28.1049 18.6099C28.1078 18.6377 28.117 18.6645 28.1317 18.6879C28.1464 18.7113 28.1662 18.7307 28.1895 18.7446C28.2129 18.7584 28.239 18.7663 28.2658 18.7676C28.2687 18.7676 28.2713 18.7676 28.2742 18.7676H39.2072C39.2707 18.7681 39.3326 18.7469 39.3835 18.7073C39.4344 18.6676 39.4715 18.6117 39.489 18.548C39.683 17.8268 39.7809 17.0813 39.78 16.3323C39.7803 11.8152 36.2698 8.15283 31.9399 8.15283Z" fill="#FBAD41"/>
</svg>

<svg xmlns="http://www.w3.org/2000/svg" width="40" height="19" fill="none" viewBox="0 0 40 19"><path fill="#F6821F" d="m27.16 18.507.204-.735c.242-.873.152-1.68-.255-2.274-.374-.547-.998-.868-1.755-.906l-14.346-.19a.3.3 0 0 1-.127-.034.3.3 0 0 1-.099-.09.31.31 0 0 1-.03-.27.4.4 0 0 1 .128-.185.37.37 0 0 1 .205-.081l14.479-.192c1.717-.082 3.576-1.536 4.227-3.31l.826-2.25a.55.55 0 0 0 .022-.298C29.702 3.29 25.94 0 21.44 0c-4.146 0-7.667 2.792-8.928 6.673a4.1 4.1 0 0 0-2.978-.86c-1.99.206-3.589 1.877-3.786 3.953a4.6 4.6 0 0 0 .11 1.547C2.605 11.41 0 14.189 0 17.603q0 .459.065.911c.009.07.042.134.093.18.05.047.116.072.183.073l26.485.003h.007a.34.34 0 0 0 .205-.076.36.36 0 0 0 .122-.187"/><path fill="#FBAD41" d="M31.94 8.153q-.2 0-.397.01a.2.2 0 0 0-.062.014.2.2 0 0 0-.091.061.24.24 0 0 0-.054.098l-.564 2.033c-.243.874-.152 1.68.254 2.274.375.547.998.868 1.756.906l3.058.191a.3.3 0 0 1 .123.035.28.28 0 0 1 .142.22.3.3 0 0 1-.015.14.4.4 0 0 1-.128.185.37.37 0 0 1-.205.08l-3.177.192c-1.725.083-3.585 1.536-4.235 3.31l-.23.626a.18.18 0 0 0 .017.16.17.17 0 0 0 .134.08h10.941a.3.3 0 0 0 .176-.06.3.3 0 0 0 .106-.16 8.5 8.5 0 0 0 .291-2.216c0-4.517-3.51-8.18-7.84-8.18"/></svg>
